packages/admin/admin-icons/icons/columns-2.svg

<svg xmlns="http://www.w3.org/2000/svg" width="16" height="16" viewBox="0 0 16 16"><path fill="#242424" fill-rule="evenodd" d="M12.5,2 C12.7761424,2 13,2.22385763 13,2.5 C13,2.74545989 12.8231248,2.94960837 12.5898756,2.99194433 L12.5,3 L10,3 L10,13 L15,13 L15,2.5 C15,2.25454011 15.1768752,2.05039163 15.4101244,2.00805567 L15.5,2 C15.7454599,2 15.9496084,2.17687516 15.9919443,2.41012437 L16,2.5 L16,13.5 C16,13.7454599 15.8231248,13.9496084 15.5898756,13.9919443 L15.5,14 L9.5,14 C9.25454011,14 9.05039163,13.8231248 9.00805567,13.5898756 L9,13.5 L9,2.5 C9,2.25454011 9.17687516,2.05039163 9.41012437,2.00805567 L9.5,2 L12.5,2 Z M3.5,2 C3.77614237,2 4,2.22385763 4,2.5 C4,2.74545989 3.82312484,2.94960837 3.58987563,2.99194433 L3.5,3 L1,3 L1,13 L6,13 L6,2.5 C6,2.25454011 6.17687516,2.05039163 6.41012437,2.00805567 L6.5,2 C6.74545989,2 6.94960837,2.17687516 6.99194433,2.41012437 L7,2.5 L7,13.5 C7,13.7454599 6.82312484,13.9496084 6.58987563,13.9919443 L6.5,14 L0.5,14 C0.254540111,14 0.0503916296,13.8231248 0.00805566941,13.5898756 L0,13.5 L0,2.5 C0,2.25454011 0.176875161,2.05039163 0.410124368,2.00805567 L0.5,2 L3.5,2 Z"/></svg>

<svg width="16" height="16" fill="none" viewBox="0 0 16 16">
  <path fill="#242424" fill-rule="evenodd" d="M9 2.501a.5.5 0 0 1 .41-.492l.09-.008h3a.5.5 0 0 1 .09.992L12.5 3H10v10h5V2.5a.5.5 0 0 1 .41-.492L15.5 2a.5.5 0 0 1 .492.41L16 2.5v11a.5.5 0 0 1-.41.492L15.5 14h-6a.5.5 0 0 1-.492-.41L9 13.5v-11Zm-9 0a.5.5 0 0 1 .41-.492l.09-.008h3a.5.5 0 0 1 .09.992L3.5 3H1v10h5V2.5a.5.5 0 0 1 .41-.492L6.5 2a.5.5 0 0 1 .492.41L7 2.5v11a.5.5 0 0 1-.41.492L6.5 14h-6a.5.5 0 0 1-.492-.41L0 13.5v-11Z" clip-rule="evenodd"/>
</svg>
